X:1
T:Title
%%score 1 2
L:1/8
Q:1/4=105
M:4/4
K:D
V:1 treble nm="Grand Piano, Soprano"
V:2 bass nm="Choir Pad, My Brother�s Keeper"
V:1
 [DB]2 [DB]>[C^A] [DB]2 [=C=A]2 | [EG]3 [=CE] [B,D]2 [B,D]2 | B,2 [B,D]2 [B,G]2 [DB]2 | [DA]6 z2 | %4
w: By~Solomon~W.~Straub * * * *||||
 [DB]2 [DB]>[C^A] [DB]2 [=C=A]2 | [EG]3 [=CE] [B,D]2 [B,D]2 | [B,D]2 [DG]2 [DF]2 [=CA]2 | %7
w: |||
 [B,G]6 z2 | [FA]2 [FA]>[FA] [Fd]2 [FA]2 | [FA]3 [=F^G] [^FA]2 [FA]2 | [Ec]3 [Ec] [GB]2 [GA]2 | %11
w: ||||
 [Fd]6 z2 | [GB]2 [GB]>[G^A] [DB]2 [=C=A]2 | [EG]3 [=CE] [B,D]2 [B,D]2 | [B,D] [DG]3 [DF] [=CA]3 | %15
w: ||||
 [B,G]8 |] %16
w: |
V:2
 G,2 G,>G, G,2 G,2 | [=C,G,]3 [C,G,] [G,,G,]2 [G,,G,]2 | [G,,G,]2 [B,,G,]2 [D,G,]2 G,2 | %3
 [D,F,]6 z2 | G,2 G,>G, G,2 G,2 | [=C,G,]3 [C,G,] [G,,G,]2 [G,,G,]2 | %6
 [G,,G,]2 [B,,G,]2 [D,A,]2 [D,F,]2 | [G,,G,]6 z2 | [D,D]2 [D,D]>[D,D] [D,D]2 [D,D]2 | %9
 [D,D]3 [D,D] [D,D]2 [D,A,]2 | A,3 A, A,2 A,2 | [D,A,]6 z2 | [G,D]2 [G,D]>[G,C] [G,D]2 G,2 | %13
 [=C,G,]3 [C,G,] [G,,G,]2 [G,,G,]2 | [G,,G,] [B,,G,]3 [D,A,] [D,F,]3 | [G,,G,]8 |] %16

